src/components/Icon/icons/studio.svg

<svg width="100%" height="100%" viewBox="0 0 20 20" fill="none" xmlns="http://www.w3.org/2000/svg">
<path d="M14.4827 6.89632C15.2445 6.89632 15.862 6.27878 15.862 5.51701C15.862 4.75523 15.2445 4.1377 14.4827 4.1377C13.7209 4.1377 13.1034 4.75523 13.1034 5.51701C13.1034 6.27878 13.7209 6.89632 14.4827 6.89632Z" fill="currentColor"/>
<path d="M14.4828 9.65477H5.51726C3.2352 9.65477 1.37933 7.79891 1.37933 5.51684C1.37933 3.23477 3.2352 1.37891 5.51726 1.37891H14.4828C16.7648 1.37891 18.6207 3.23477 18.6207 5.51684C18.6207 7.79891 16.7648 9.65477 14.4828 9.65477ZM5.51726 2.75822C3.99588 2.75822 2.75864 3.99546 2.75864 5.51684C2.75864 7.03822 3.99588 8.27546 5.51726 8.27546H14.4828C16.0042 8.27546 17.2414 7.03822 17.2414 5.51684C17.2414 3.99546 16.0042 2.75822 14.4828 2.75822H5.51726Z" fill="currentColor"/>
<path d="M5.51725 15.8621C6.27902 15.8621 6.89656 15.2446 6.89656 14.4828C6.89656 13.7211 6.27902 13.1035 5.51725 13.1035C4.75548 13.1035 4.13794 13.7211 4.13794 14.4828C4.13794 15.2446 4.75548 15.8621 5.51725 15.8621Z" fill="currentColor"/>
<path d="M14.4828 18.6206H5.51726C3.2352 18.6206 1.37933 16.7647 1.37933 14.4827C1.37933 12.2006 3.2352 10.3447 5.51726 10.3447H14.4828C16.7648 10.3447 18.6207 12.2006 18.6207 14.4827C18.6207 16.7647 16.7648 18.6206 14.4828 18.6206ZM5.51726 11.724C3.99588 11.724 2.75864 12.9613 2.75864 14.4827C2.75864 16.004 3.99588 17.2413 5.51726 17.2413H14.4828C16.0042 17.2413 17.2414 16.004 17.2414 14.4827C17.2414 12.9613 16.0042 11.724 14.4828 11.724H5.51726Z" fill="currentColor"/>
</svg>

<svg xmlns="http://www.w3.org/2000/svg" fill="none" viewBox="0 0 20 20"><path fill="currentColor" d="M14.483 6.896a1.38 1.38 0 1 0 0-2.758 1.38 1.38 0 0 0 0 2.758"/><path fill="currentColor" d="M14.483 9.655H5.517A4.14 4.14 0 0 1 1.38 5.517a4.14 4.14 0 0 1 4.138-4.138h8.966a4.14 4.14 0 0 1 4.138 4.138 4.14 4.14 0 0 1-4.138 4.138M5.517 2.758A2.76 2.76 0 0 0 2.76 5.517a2.76 2.76 0 0 0 2.758 2.758h8.966a2.76 2.76 0 0 0 2.758-2.758 2.76 2.76 0 0 0-2.758-2.759zM5.517 15.862a1.38 1.38 0 1 0 0-2.758 1.38 1.38 0 0 0 0 2.758"/><path fill="currentColor" d="M14.483 18.62H5.517a4.14 4.14 0 0 1-4.138-4.137 4.14 4.14 0 0 1 4.138-4.138h8.966a4.14 4.14 0 0 1 4.138 4.138 4.14 4.14 0 0 1-4.138 4.138m-8.966-6.896a2.76 2.76 0 0 0-2.758 2.759 2.76 2.76 0 0 0 2.758 2.758h8.966a2.76 2.76 0 0 0 2.758-2.758 2.76 2.76 0 0 0-2.758-2.759z"/></svg>
